logos/aws-config.svg

<?xml version="1.0" encoding="UTF-8"?>
<svg width="256px" height="256px" viewBox="0 0 256 256" version="1.1" xmlns="http://www.w3.org/2000/svg" xmlns:xlink="http://www.w3.org/1999/xlink" preserveAspectRatio="xMidYMid">
    <title>AWS Config</title>
    <defs>
        <linearGradient x1="0%" y1="100%" x2="100%" y2="0%" id="linearGradient-1">
            <stop stop-color="#B0084D" offset="0%"></stop>
            <stop stop-color="#FF4F8B" offset="100%"></stop>
        </linearGradient>
    </defs>
    <g>
        <rect fill="url(#linearGradient-1)" x="0" y="0" width="256" height="256"></rect>
        <path d="M187.330377,150.562794 L193.349031,152.644338 L189.551964,163.615413 C189.106373,164.907625 187.887364,165.754247 186.54741,165.754247 C186.416916,165.754247 186.283239,165.747882 186.149562,165.731968 L173.889457,164.204229 L174.678789,157.886392 L181.607721,158.752111 C178.883253,154.458528 173.743049,151.778619 167.600265,151.778619 C159.554174,151.778619 153.455949,156.180417 152.06507,162.991586 L145.829986,161.71847 C147.85424,151.81363 156.400029,145.413041 167.600265,145.413041 C175.452207,145.413041 182.101053,148.739055 186.10182,154.11797 L187.330377,150.562794 Z M183.13546,172.126192 L189.370544,173.405673 C187.355839,183.240492 178.606351,189.847963 167.600265,189.847963 C160.435806,189.847963 154.121152,186.760657 150.040816,181.808237 L149.407441,184.796876 L143.178723,183.476019 L145.702675,171.566021 C146.06233,169.866411 147.698283,168.765166 149.429721,169.102542 L161.005526,171.368688 L159.783335,177.616503 L153.949282,176.473882 C156.743771,180.757916 161.794857,183.482384 167.600265,183.482384 C175.620894,183.482384 181.719119,179.023296 183.13546,172.126192 L183.13546,172.126192 Z M208.034421,173.119222 L204.205526,172.902792 C202.661873,172.829588 201.264628,173.860812 200.920887,175.382185 C200.077448,179.128328 198.606999,182.680321 196.547734,185.939498 C195.717027,187.253989 195.958918,188.979061 197.117454,190.013468 L199.978781,192.562882 L192.566065,199.978781 L190.026199,197.133368 C188.98861,195.968467 187.263538,195.729758 185.949046,196.560466 C182.689869,198.61973 179.134694,200.093362 175.37582,200.943167 C173.860812,201.286908 172.810492,202.674604 172.902792,204.227805 L173.119222,208.034421 L162.628748,208.034421 L162.848361,204.224622 C162.937479,202.671421 161.890341,201.280542 160.372151,200.936801 C156.626007,200.093362 153.067649,198.616548 149.80529,196.5541 C148.490798,195.723392 146.765726,195.958918 145.73132,197.127002 L143.185088,199.978781 L135.769189,192.562882 L138.620968,190.019834 C139.782686,188.985427 140.024578,187.263538 139.19387,185.949046 C137.137788,182.686687 135.670522,179.134694 134.8239,175.379003 C134.483342,173.857629 133.038356,172.79776 131.539262,172.902792 L127.716732,173.119222 L127.716732,162.631931 L131.551993,162.848361 C132.961969,162.912017 134.489708,161.893524 134.836632,160.375333 C135.683253,156.632373 137.156885,153.083563 139.21615,149.827569 C140.046858,148.509895 139.801783,146.788005 138.643248,145.753599 L135.769189,143.188271 L143.185088,135.769189 L145.750416,138.640065 C146.78164,139.804966 148.513077,140.040492 149.821204,139.21615 C153.074015,137.163251 156.626007,135.695985 160.372151,134.849363 C161.890341,134.505621 162.937479,133.114742 162.848361,131.561541 L162.628748,127.716732 L173.119222,127.716732 L172.902792,131.567907 C172.810492,133.121108 173.860812,134.508804 175.37582,134.852546 C179.11878,135.699167 182.664407,137.169616 185.917218,139.222515 C187.225344,140.046858 188.953599,139.811331 189.991188,138.649613 L192.562882,135.769189 L199.978781,143.188271 L197.111088,145.744051 C195.952553,146.78164 195.710661,148.503529 196.541369,149.818021 C198.597451,153.077197 200.071082,156.626007 200.917704,160.375333 C201.261445,161.893524 202.735077,162.912017 204.202343,162.848361 L208.034421,162.631931 L208.034421,173.119222 Z M213.400604,156.947469 C212.767229,156.345922 211.885596,156.027643 211.035792,156.08175 L206.439844,156.345922 C205.653695,153.716938 204.603374,151.177072 203.295248,148.761335 L206.73266,145.693126 C207.385132,145.110676 207.77025,144.28315 207.795712,143.407883 C207.817992,142.535799 207.480616,141.685994 206.863155,141.068533 L194.68262,128.884815 C194.061976,128.267354 193.253548,127.907699 192.340087,127.955441 C191.46482,127.980903 190.640477,128.362838 190.054844,129.01531 L186.977087,132.468636 C184.564532,131.163692 182.031032,130.113372 179.405231,129.330406 L179.66622,124.712179 C179.713962,123.840094 179.405231,122.983924 178.800501,122.347366 C178.202137,121.710808 177.365063,121.351153 176.489796,121.351153 L159.261357,121.351153 C158.382907,121.351153 157.549016,121.710808 156.947469,122.347366 C156.345922,122.983924 156.034009,123.840094 156.084933,124.712179 L156.345922,129.32404 C153.713755,130.107006 151.183438,131.157327 148.7677,132.462271 L145.693126,129.018492 C145.110676,128.362838 144.286333,127.980903 143.407883,127.955441 C142.519885,127.917247 141.689177,128.267354 141.068533,128.884815 L128.884815,141.068533 C128.264172,141.685994 127.926796,142.535799 127.952258,143.407883 C127.97772,144.28315 128.362838,145.110676 129.01531,145.693126 L132.462271,148.770884 C131.154144,151.183438 130.103824,153.720121 129.314492,156.345922 L124.712179,156.08175 C123.843277,156.02446 122.980741,156.345922 122.347366,156.947469 C121.710808,157.549016 121.351153,158.38609 121.351153,159.261357 L121.351153,176.489796 C121.351153,177.36188 121.710808,178.202137 122.347366,178.803684 C122.980741,179.405231 123.84646,179.710779 124.712179,179.66622 L129.298578,179.405231 C130.084727,182.04058 131.135048,184.580446 132.443174,187.002549 L129.01531,190.054844 C128.362838,190.640477 127.97772,191.46482 127.952258,192.340087 C127.926796,193.215354 128.264172,194.061976 128.884815,194.68262 L141.068533,206.863155 C141.689177,207.483799 142.596272,207.824357 143.407883,207.795712 C144.286333,207.77025 145.110676,207.385132 145.693126,206.73266 L148.748604,203.307979 C151.170707,204.619288 153.710572,205.672792 156.345922,206.45894 L156.084933,211.035792 C156.034009,211.911059 156.345922,212.767229 156.947469,213.403787 C157.549016,214.040345 158.382907,214.4 159.261357,214.4 L176.489796,214.4 C177.365063,214.4 178.202137,214.040345 178.800501,213.403787 C179.405231,212.767229 179.713962,211.911059 179.66622,211.035792 L179.405231,206.465306 C182.043763,205.679157 184.586812,204.625654 187.005732,203.314345 L190.054844,206.73266 C190.637295,207.388315 191.46482,207.77025 192.340087,207.795712 C193.263096,207.833906 194.061976,207.483799 194.68262,206.863155 L206.863155,194.68262 C207.480616,194.061976 207.817992,193.215354 207.795712,192.340087 C207.77025,191.46482 207.385132,190.640477 206.73266,190.058027 L203.301613,186.996184 C204.60974,184.577264 205.663243,182.037398 206.446209,179.405231 L211.035792,179.66622 C211.882414,179.707596 212.767229,179.402048 213.400604,178.803684 C214.040345,178.202137 214.4,177.36188 214.4,176.489796 L214.4,159.261357 C214.4,158.38609 214.040345,157.549016 213.400604,156.947469 L213.400604,156.947469 Z M47.9655789,175.277153 L111.621366,175.277153 L111.621366,181.642732 L44.7827894,181.642732 C43.0227069,181.642732 41.6,180.216842 41.6,178.459942 L41.6,44.7827894 C41.6,43.0258896 43.0227069,41.6 44.7827894,41.6 L191.1911,41.6 C192.951182,41.6 194.373889,43.0258896 194.373889,44.7827894 L194.373889,114.804155 L188.008311,114.804155 L188.008311,47.9655789 L47.9655789,47.9655789 L47.9655789,175.277153 Z M152.997628,86.1590512 L149.814838,86.1590512 L149.814838,79.7934723 L152.997628,79.7934723 L165.728785,79.7934723 L168.911574,79.7934723 L168.911574,86.1590512 L165.728785,86.1590512 L152.997628,86.1590512 Z M156.180417,73.4278938 L162.545996,73.4278938 L162.545996,60.6967363 L156.180417,60.6967363 L156.180417,73.4278938 Z M168.911574,114.804155 L168.911574,92.5246298 L172.094364,92.5246298 C173.854446,92.5246298 175.277153,91.0987402 175.277153,89.3418403 L175.277153,76.6106829 C175.277153,74.8537834 173.854446,73.4278938 172.094364,73.4278938 L168.911574,73.4278938 L168.911574,57.5139469 C168.911574,55.757047 167.488868,54.3311574 165.728785,54.3311574 L152.997628,54.3311574 C151.237545,54.3311574 149.814838,55.757047 149.814838,57.5139469 L149.814838,73.4278938 L146.632049,73.4278938 C144.871966,73.4278938 143.44926,74.8537834 143.44926,76.6106829 L143.44926,89.3418403 C143.44926,91.0987402 144.871966,92.5246298 146.632049,92.5246298 L149.814838,92.5246298 L149.814838,114.804155 L156.180417,114.804155 L156.180417,92.5246298 L162.545996,92.5246298 L162.545996,114.804155 L168.911574,114.804155 Z M108.438577,121.169734 L105.255787,121.169734 L105.255787,114.804155 L108.438577,114.804155 L121.169734,114.804155 L124.352524,114.804155 L124.352524,121.169734 L121.169734,121.169734 L108.438577,121.169734 Z M111.621366,108.438577 L117.986945,108.438577 L117.986945,60.6967363 L111.621366,60.6967363 L111.621366,108.438577 Z M124.352524,133.900892 L124.352524,127.535313 L127.535313,127.535313 C129.295395,127.535313 130.718102,126.109423 130.718102,124.352524 L130.718102,111.621366 C130.718102,109.864466 129.295395,108.438577 127.535313,108.438577 L124.352524,108.438577 L124.352524,57.5139469 C124.352524,55.757047 122.929817,54.3311574 121.169734,54.3311574 L108.438577,54.3311574 C106.678494,54.3311574 105.255787,55.757047 105.255787,57.5139469 L105.255787,108.438577 L102.072998,108.438577 C100.312915,108.438577 98.8902086,109.864466 98.8902086,111.621366 L98.8902086,124.352524 C98.8902086,126.109423 100.312915,127.535313 102.072998,127.535313 L105.255787,127.535313 L105.255787,162.545996 L111.621366,162.545996 L111.621366,127.535313 L117.986945,127.535313 L117.986945,133.900892 L124.352524,133.900892 Z M60.6967363,89.3418403 L63.8795254,89.3418403 L76.6106829,89.3418403 L79.7934723,89.3418403 L79.7934723,95.7074192 L76.6106829,95.7074192 L63.8795254,95.7074192 L60.6967363,95.7074192 L60.6967363,89.3418403 Z M67.0623149,82.9762618 L73.4278938,82.9762618 L73.4278938,60.6967363 L67.0623149,60.6967363 L67.0623149,82.9762618 Z M67.0623149,156.180417 L73.4278938,156.180417 L73.4278938,102.072998 L67.0623149,102.072998 L67.0623149,156.180417 Z M63.8795254,162.545996 L76.6106829,162.545996 C78.3707654,162.545996 79.7934723,161.120106 79.7934723,159.363206 L79.7934723,102.072998 L82.9762618,102.072998 C84.7363443,102.072998 86.1590512,100.647108 86.1590512,98.8902086 L86.1590512,86.1590512 C86.1590512,84.4021514 84.7363443,82.9762618 82.9762618,82.9762618 L79.7934723,82.9762618 L79.7934723,57.5139469 C79.7934723,55.757047 78.3707654,54.3311574 76.6106829,54.3311574 L63.8795254,54.3311574 C62.1194429,54.3311574 60.6967363,55.757047 60.6967363,57.5139469 L60.6967363,82.9762618 L57.5139469,82.9762618 C55.7538643,82.9762618 54.3311574,84.4021514 54.3311574,86.1590512 L54.3311574,98.8902086 C54.3311574,100.647108 55.7538643,102.072998 57.5139469,102.072998 L60.6967363,102.072998 L60.6967363,159.363206 C60.6967363,161.120106 62.1194429,162.545996 63.8795254,162.545996 L63.8795254,162.545996 Z" fill="#FFFFFF"></path>
    </g>
</svg>

<svg preserveAspectRatio="xMidYMid" viewBox="0 0 256 256" xmlns="http://www.w3.org/2000/svg">
  <defs>
    <linearGradient id="aws-config_svg__a" x1="0%" x2="100%" y1="100%" y2="0%">
      <stop offset="0%" stop-color="#B0084D"/>
      <stop offset="100%" stop-color="#FF4F8B"/>
    </linearGradient>
  </defs>
  <path fill="url(#aws-config_svg__a)" d="M0 0h256v256H0z"/>
  <path fill="#FFF" d="m187.33 150.563 6.019 2.081-3.797 10.971a3.18 3.18 0 0 1-3.005 2.14 3.34 3.34 0 0 1-.397-.023l-12.26-1.528.789-6.318 6.929.866c-2.725-4.293-7.865-6.973-14.008-6.973-8.046 0-14.144 4.401-15.535 11.213l-6.235-1.274c2.024-9.904 10.57-16.305 21.77-16.305 7.852 0 14.501 3.326 18.502 8.705l1.228-3.555Zm-4.195 21.563 6.236 1.28c-2.015 9.834-10.765 16.442-21.77 16.442-7.165 0-13.48-3.087-17.56-8.04l-.634 2.989-6.228-1.321 2.524-11.91a3.17 3.17 0 0 1 3.727-2.463l11.576 2.266-1.223 6.248-5.834-1.143c2.795 4.284 7.846 7.008 13.651 7.008 8.02 0 14.12-4.459 15.535-11.356Zm24.9.993-3.83-.216c-1.543-.073-2.94.958-3.284 2.48a33.482 33.482 0 0 1-4.373 10.556 3.185 3.185 0 0 0 .57 4.074l2.86 2.55-7.412 7.416-2.54-2.846a3.182 3.182 0 0 0-4.077-.573 33.614 33.614 0 0 1-10.573 4.383 3.178 3.178 0 0 0-2.473 3.285l.216 3.806h-10.49l.22-3.81a3.185 3.185 0 0 0-2.477-3.287 33.511 33.511 0 0 1-10.567-4.383 3.174 3.174 0 0 0-4.074.573l-2.546 2.852-7.416-7.416 2.852-2.543a3.177 3.177 0 0 0 .573-4.071 33.63 33.63 0 0 1-4.37-10.57c-.34-1.521-1.786-2.581-3.285-2.476l-3.822.216v-10.487l3.835.216c1.41.064 2.938-.954 3.285-2.473a33.519 33.519 0 0 1 4.38-10.547 3.185 3.185 0 0 0-.574-4.074l-2.874-2.566 7.416-7.419 2.565 2.871a3.182 3.182 0 0 0 4.071.576 33.595 33.595 0 0 1 10.551-4.367 3.185 3.185 0 0 0 2.476-3.287l-.22-3.845h10.491l-.216 3.85a3.178 3.178 0 0 0 2.473 3.286 33.581 33.581 0 0 1 10.541 4.37 3.19 3.19 0 0 0 4.074-.573l2.572-2.88 7.416 7.418-2.868 2.556a3.185 3.185 0 0 0-.57 4.074 33.607 33.607 0 0 1 4.377 10.557c.343 1.519 1.817 2.537 3.284 2.473l3.832-.216v10.487Zm5.366-16.172a3.193 3.193 0 0 0-2.365-.865l-4.596.264a39.96 39.96 0 0 0-3.145-7.585l3.438-3.068a3.19 3.19 0 0 0 1.063-2.285 3.2 3.2 0 0 0-.933-2.34l-12.18-12.183c-.621-.618-1.43-.977-2.343-.93-.875.026-1.7.408-2.285 1.06l-3.078 3.454a39.822 39.822 0 0 0-7.572-3.139l.261-4.618a3.178 3.178 0 0 0-.865-2.365 3.17 3.17 0 0 0-2.311-.996h-17.23a3.178 3.178 0 0 0-3.176 3.361l.26 4.612a39.793 39.793 0 0 0-7.577 3.138l-3.075-3.444a3.172 3.172 0 0 0-2.285-1.063c-.888-.038-1.719.312-2.34.93l-12.183 12.184a3.174 3.174 0 0 0-.933 2.339 3.19 3.19 0 0 0 1.063 2.285l3.447 3.078a40.094 40.094 0 0 0-3.148 7.575l-4.602-.264a3.153 3.153 0 0 0-2.365.865 3.183 3.183 0 0 0-.996 2.314v17.229c0 .872.36 1.712.996 2.314.634.601 1.5.907 2.365.862l4.587-.26a40.074 40.074 0 0 0 3.144 7.597l-3.428 3.052a3.182 3.182 0 0 0-.13 4.628l12.184 12.18c.62.62 1.527.961 2.339.933a3.184 3.184 0 0 0 2.285-1.063l3.056-3.425a39.89 39.89 0 0 0 7.597 3.15l-.261 4.578a3.178 3.178 0 0 0 3.176 3.364h17.229a3.17 3.17 0 0 0 2.31-.996 3.18 3.18 0 0 0 .866-2.368l-.26-4.57a39.749 39.749 0 0 0 7.6-3.152l3.049 3.419a3.177 3.177 0 0 0 2.285 1.063c.923.038 1.722-.312 2.343-.933l12.18-12.18a3.208 3.208 0 0 0 .933-2.343 3.183 3.183 0 0 0-1.063-2.282l-3.431-3.062a39.81 39.81 0 0 0 3.144-7.59l4.59.26a3.26 3.26 0 0 0 2.365-.862c.64-.602.999-1.442.999-2.314v-17.23c0-.875-.36-1.712-1-2.314Zm-165.435 18.33h63.655v6.366H44.783a3.182 3.182 0 0 1-3.183-3.183V44.783a3.182 3.182 0 0 1 3.183-3.183H191.19a3.182 3.182 0 0 1 3.183 3.183v70.021h-6.366V47.966H47.966v127.311ZM152.998 86.16h-3.183v-6.366h19.097v6.366h-15.914Zm3.182-12.731h6.366V60.697h-6.366v12.73Zm12.732 41.376v-22.28h3.182a3.182 3.182 0 0 0 3.183-3.182V76.61a3.182 3.182 0 0 0-3.183-3.183h-3.182V57.514a3.182 3.182 0 0 0-3.183-3.183h-12.731a3.182 3.182 0 0 0-3.183 3.183v15.914h-3.183a3.182 3.182 0 0 0-3.183 3.183v12.73a3.182 3.182 0 0 0 3.183 3.184h3.183v22.28h6.365v-22.28h6.366v22.28h6.366Zm-60.473 6.366h-3.183v-6.366h19.097v6.366h-15.914Zm3.182-12.731h6.366V60.697h-6.366v47.742Zm12.732 25.462v-6.366h3.182a3.182 3.182 0 0 0 3.183-3.182V111.62a3.182 3.182 0 0 0-3.183-3.182h-3.182V57.514a3.182 3.182 0 0 0-3.183-3.183h-12.731a3.182 3.182 0 0 0-3.183 3.183v50.925h-3.183a3.182 3.182 0 0 0-3.183 3.182v12.732a3.182 3.182 0 0 0 3.183 3.182h3.183v35.011h6.365v-35.01h6.366v6.365h6.366ZM60.697 89.34h19.096v6.366H60.697v-6.365Zm6.365-6.365h6.366v-22.28h-6.366v22.28Zm0 73.204h6.366v-54.107h-6.366v54.107Zm-3.182 6.366h12.73a3.182 3.182 0 0 0 3.183-3.183v-57.29h3.183a3.182 3.182 0 0 0 3.183-3.183V86.16a3.182 3.182 0 0 0-3.183-3.184h-3.183V57.514a3.182 3.182 0 0 0-3.182-3.183H63.88a3.182 3.182 0 0 0-3.183 3.183v25.462h-3.183a3.182 3.182 0 0 0-3.183 3.183V98.89a3.182 3.182 0 0 0 3.183 3.183h3.183v57.29a3.182 3.182 0 0 0 3.183 3.183Z"/>
</svg>
